icons/phone-classic-varB.svg

<svg width="24" height="24" viewBox="0 0 24 24" fill="none" xmlns="http://www.w3.org/2000/svg">
<path fill-rule="evenodd" clip-rule="evenodd" d="M6.39673 6.90429C7.34824 5.59929 8.97937 4.79993 10.7 4.79993H13.2C16.1936 4.79993 18.75 7.21537 18.75 10.2499V15.4499C18.75 19.1641 15.7142 22.1999 12 22.1999C8.28579 22.1999 5.25 19.1641 5.25 15.4499V10.2499C5.25 8.9664 5.71612 7.81347 6.39673 6.90429ZM10.7 6.29993C9.42261 6.29993 8.25552 6.89873 7.60655 7.79106L7.60006 7.79998C7.08245 8.49012 6.75 9.33551 6.75 10.2499V15.4499C6.75 18.3357 9.11421 20.6999 12 20.6999C14.8858 20.6999 17.25 18.3357 17.25 15.4499V10.2499C17.25 8.08449 15.4064 6.29993 13.2 6.29993H10.7ZM10.8 9.29993C10.0142 9.29993 9.35 9.96414 9.35 10.7499V11.2499C9.35 12.0357 10.0142 12.6999 10.8 12.6999H13.1C13.7039 12.6999 14.236 12.3076 14.45 11.7692V10.7499C14.45 9.96414 13.7858 9.29993 13 9.29993H10.8ZM15.9393 10.4999C15.81 9.00009 14.5301 7.79993 13 7.79993H10.8C9.18579 7.79993 7.85 9.13571 7.85 10.7499V11.2499C7.85 12.8641 9.18579 14.1999 10.8 14.1999H13.1C14.7142 14.1999 16.05 12.8641 16.05 11.2499V10.4999H15.9393Z" fill="black"/>
<path fill-rule="evenodd" clip-rule="evenodd" d="M7 1.79993C7.41421 1.79993 7.75 2.13571 7.75 2.54993V7.34993C7.75 7.76414 7.41421 8.09993 7 8.09993C6.58579 8.09993 6.25 7.76414 6.25 7.34993V2.54993C6.25 2.13571 6.58579 1.79993 7 1.79993Z" fill="black"/>
<path d="M15.3001 10.7499V11.3499C15.3001 12.5499 14.3001 13.5499 13.1001 13.5499H10.8001C9.6001 13.5499 8.6001 12.5499 8.6001 11.3499V10.7499C8.6001 9.54993 9.6001 8.54993 10.8001 8.54993H13.0001C14.3001 8.54993 15.3001 9.44993 15.3001 10.7499Z" fill="black"/>
<path fill-rule="evenodd" clip-rule="evenodd" d="M10.8001 9.29993C10.0143 9.29993 9.3501 9.96414 9.3501 10.7499V11.3499C9.3501 12.1357 10.0143 12.7999 10.8001 12.7999H13.1001C13.8859 12.7999 14.5501 12.1357 14.5501 11.3499V10.7499C14.5501 9.90762 13.9307 9.29993 13.0001 9.29993H10.8001ZM7.8501 10.7499C7.8501 9.13571 9.18588 7.79993 10.8001 7.79993H13.0001C14.6694 7.79993 16.0501 8.99223 16.0501 10.7499V11.3499C16.0501 12.9641 14.7143 14.2999 13.1001 14.2999H10.8001C9.18588 14.2999 7.8501 12.9641 7.8501 11.3499V10.7499Z" fill="black"/>
</svg>

<svg xmlns="http://www.w3.org/2000/svg" fill="none" viewBox="0 0 24 24">
  <path fill="#000" fill-rule="evenodd" d="M6.397 6.904C7.348 5.6 8.979 4.8 10.7 4.8h2.5c2.994 0 5.55 2.415 5.55 5.45v5.2c0 3.714-3.036 6.75-6.75 6.75s-6.75-3.036-6.75-6.75v-5.2c0-1.284.466-2.437 1.147-3.346ZM10.7 6.3c-1.277 0-2.444.599-3.093 1.491L7.6 7.8c-.518.69-.85 1.536-.85 2.45v5.2c0 2.886 2.364 5.25 5.25 5.25s5.25-2.364 5.25-5.25v-5.2c0-2.166-1.844-3.95-4.05-3.95h-2.5Zm.1 3a1.47 1.47 0 0 0-1.45 1.45v.5c0 .786.664 1.45 1.45 1.45h2.3c.604 0 1.136-.392 1.35-.93v-1.02A1.47 1.47 0 0 0 13 9.3h-2.2Zm5.14 1.2C15.81 9 14.53 7.8 13 7.8h-2.2a2.97 2.97 0 0 0-2.95 2.95v.5a2.97 2.97 0 0 0 2.95 2.95h2.3a2.97 2.97 0 0 0 2.95-2.95v-.75h-.11Z" clip-rule="evenodd"/>
  <path fill="#000" fill-rule="evenodd" d="M7 1.8a.75.75 0 0 1 .75.75v4.8a.75.75 0 0 1-1.5 0v-4.8A.75.75 0 0 1 7 1.8Z" clip-rule="evenodd"/>
  <path fill="#000" d="M15.3 10.75v.6c0 1.2-1 2.2-2.2 2.2h-2.3c-1.2 0-2.2-1-2.2-2.2v-.6c0-1.2 1-2.2 2.2-2.2H13c1.3 0 2.3.9 2.3 2.2Z"/>
  <path fill="#000" fill-rule="evenodd" d="M10.8 9.3a1.47 1.47 0 0 0-1.45 1.45v.6c0 .786.664 1.45 1.45 1.45h2.3a1.47 1.47 0 0 0 1.45-1.45v-.6c0-.842-.62-1.45-1.55-1.45h-2.2Zm-2.95 1.45A2.97 2.97 0 0 1 10.8 7.8H13c1.67 0 3.05 1.192 3.05 2.95v.6a2.97 2.97 0 0 1-2.95 2.95h-2.3a2.97 2.97 0 0 1-2.95-2.95v-.6Z" clip-rule="evenodd"/>
</svg>
